packages/icons/svg/32/ShareIos.svg

<svg width="32" height="32" viewBox="0 0 32 32" fill="none" xmlns="http://www.w3.org/2000/svg">
<path d="M17 18.0042V9.91845L20.2929 13.2113C20.6834 13.6019 21.3166 13.6019 21.7071 13.2113C22.0976 12.8208 22.0976 12.1877 21.7071 11.7971L16 6.09003L10.2929 11.7971C9.90237 12.1877 9.90237 12.8208 10.2929 13.2113C10.6834 13.6019 11.3166 13.6019 11.7071 13.2113L15 9.91845V18.0042C15 18.5565 15.4477 19.0042 16 19.0042C16.5523 19.0042 17 18.5565 17 18.0042Z" fill="#858585"/>
<path d="M25 24V17H23V24C23 24.5523 22.5523 25 22 25H10C9.44772 25 9 24.5523 9 24V17H7V24C7 25.6569 8.34315 27 10 27H22C23.6569 27 25 25.6569 25 24Z" fill="#858585"/>
</svg>

<svg width="32" height="32" fill="none" xmlns="http://www.w3.org/2000/svg" viewBox="0 0 32 32"><path d="M17 18.004V9.918l3.293 3.293a1 1 0 101.414-1.414L16 6.09l-5.707 5.707a1 1 0 101.414 1.414L15 9.918v8.086a1 1 0 102 0z" fill="currentColor"></path><path d="M25 24v-7h-2v7a1 1 0 01-1 1H10a1 1 0 01-1-1v-7H7v7a3 3 0 003 3h12a3 3 0 003-3z" fill="currentColor"></path></svg>
